ion/phone-portrait.svg

<svg viewBox="0 0 512 512" xmlns="http://www.w3.org/2000/svg" xmlns:xlink="http://www.w3.org/1999/xlink"><defs><path d="M336 0H176v0c-35.35 0-64 28.65-64 64v384 0c0 35.34 28.65 64 64 64h160v0c35.34 0 64-28.66 64-64V64v0c0-35.35-28.66-64-64-64Zm32 448v0c0 17.67-14.33 32-32 32H176v0c-17.68 0-32-14.33-32-32V64v0c0-17.68 14.32-32 32-32h11.35 -.001c3.16-.02 6.02 1.85 7.3 4.75l-.001 0c5.07 11.68 16.6 19.24 29.35 19.25h64v0c12.74-.01 24.27-7.57 29.35-19.25l-.001-.001c1.27-2.9 4.13-4.77 7.3-4.75h11.35v0c17.67 0 32 14.32 32 32Z" id="a"/></defs><g><use xlink:href="#a"/><path d="M336 48v0 0c-3.74-.03-7.27 1.71-9.53 4.69v0C317.41 64.83 303.15 71.99 288 72h-64 -.001c-15.16-.01-29.42-7.17-38.47-19.31v0c-2.27-2.98-5.8-4.72-9.53-4.69v0 0c-8.84 0-16 7.16-16 16v384 0c0 8.83 7.16 16 16 16h160v0c8.83 0 16-7.17 16-16V64v-.001c0-8.84-7.17-16-16-16Z"/><use xlink:href="#a"/></g></svg>

<svg xmlns="http://www.w3.org/2000/svg" width="512" height="512" viewBox="0 0 512 512"><path d="M336,0H176a64,64,0,0,0-64,64V448a64,64,0,0,0,64,64H336a64,64,0,0,0,64-64V64A64,64,0,0,0,336,0Zm32,448a32,32,0,0,1-32,32H176a32,32,0,0,1-32-32V64a32,32,0,0,1,32-32h11.35a7.94,7.94,0,0,1,7.3,4.75A32,32,0,0,0,224,56h64a32,32,0,0,0,29.35-19.25,7.94,7.94,0,0,1,7.3-4.75H336a32,32,0,0,1,32,32Z"/><path d="M336,48h0a11.88,11.88,0,0,0-9.53,4.69A48,48,0,0,1,288,72H224a48,48,0,0,1-38.47-19.31A11.88,11.88,0,0,0,176,48h0a16,16,0,0,0-16,16V448a16,16,0,0,0,16,16H336a16,16,0,0,0,16-16V64A16,16,0,0,0,336,48Z"/><path d="M336,0H176a64,64,0,0,0-64,64V448a64,64,0,0,0,64,64H336a64,64,0,0,0,64-64V64A64,64,0,0,0,336,0Zm32,448a32,32,0,0,1-32,32H176a32,32,0,0,1-32-32V64a32,32,0,0,1,32-32h11.35a7.94,7.94,0,0,1,7.3,4.75A32,32,0,0,0,224,56h64a32,32,0,0,0,29.35-19.25,7.94,7.94,0,0,1,7.3-4.75H336a32,32,0,0,1,32,32Z"/></svg>
